icons/svg/tourist/carousel.svg

<?xml version="1.0" encoding="UTF-8" standalone="no"?>
<!-- Created with Inkscape (http://www.inkscape.org/) -->

<svg
   xmlns:dc="http://purl.org/dc/elements/1.1/"
   xmlns:cc="http://creativecommons.org/ns#"
   xmlns:rdf="http://www.w3.org/1999/02/22-rdf-syntax-ns#"
   xmlns:svg="http://www.w3.org/2000/svg"
   xmlns="http://www.w3.org/2000/svg"
   xmlns:sodipodi="http://sodipodi.sourceforge.net/DTD/sodipodi-0.dtd"
   xmlns:inkscape="http://www.inkscape.org/namespaces/inkscape"
   version="1.0"
   width="580"
   height="580"
   id="svg2"
   sodipodi:version="0.32"
   inkscape:version="0.48.4 r9939"
   sodipodi:docname="attraction_carousel.svg"
   inkscape:output_extension="org.inkscape.output.svg.inkscape">
  <metadata
     id="metadata2975">
    <rdf:RDF>
      <cc:Work
         rdf:about="">
        <dc:format>image/svg+xml</dc:format>
        <dc:type
           rdf:resource="http://purl.org/dc/dcmitype/StillImage" />
        <cc:license
           rdf:resource="http://web.resource.org/cc/PublicDomain" />
        <dc:language>en</dc:language>
        <dc:title />
      </cc:Work>
    </rdf:RDF>
  </metadata>
  <sodipodi:namedview
     inkscape:window-height="1004"
     inkscape:window-width="1920"
     inkscape:pageshadow="2"
     inkscape:pageopacity="0.0"
     guidetolerance="10.0"
     gridtolerance="10.0"
     objecttolerance="10.0"
     borderopacity="1.0"
     bordercolor="#666666"
     pagecolor="#ffffff"
     id="base"
     inkscape:zoom="0.65172414"
     inkscape:cx="318.96929"
     inkscape:cy="379.90203"
     inkscape:window-x="1680"
     inkscape:window-y="0"
     inkscape:current-layer="svg2"
     showgrid="false"
     inkscape:window-maximized="1" />
  <defs
     id="defs4">
    <inkscape:perspective
       sodipodi:type="inkscape:persp3d"
       inkscape:vp_x="0 : 290 : 1"
       inkscape:vp_y="0 : 1000 : 0"
       inkscape:vp_z="580 : 290 : 1"
       inkscape:persp3d-origin="290 : 193.33333 : 1"
       id="perspective2441" />
    <inkscape:perspective
       id="perspective3452"
       inkscape:persp3d-origin="30 : 20 : 1"
       inkscape:vp_z="60 : 30 : 1"
       inkscape:vp_y="0 : 1000 : 0"
       inkscape:vp_x="0 : 30 : 1"
       sodipodi:type="inkscape:persp3d" />
    <symbol
       viewBox="244.5 110 489 219.9"
       id="symbol-university">
      <path
         id="path4460"
         d="M79,43l57,119c0,0,21-96,104-96s124,106,124,106l43-133l82-17L0,17L79,43z" />
      <path
         id="path4462"
         d="M94,176l-21,39"
         stroke-width="20"
         stroke="#000000"
         fill="none" />
      <path
         id="path4464"
         d="M300,19c0,10.5-22.6,19-50.5,19S199,29.5,199,19s22.6-19,50.5-19S300,8.5,300,19z" />
      <path
         id="path4466"
         d="M112,216l-16-38L64,88c0,0-9-8-4-35s16-24,16-24"
         stroke-width="20"
         stroke="#000000"
         ill="none" />
    </symbol>
    <inkscape:perspective
       id="perspective4471"
       inkscape:persp3d-origin="372.04724 : 350.78739 : 1"
       inkscape:vp_z="744.09448 : 526.18109 : 1"
       inkscape:vp_y="0 : 1000 : 0"
       inkscape:vp_x="0 : 526.18109 : 1"
       sodipodi:type="inkscape:persp3d" />
    <inkscape:perspective
       id="perspective4668"
       inkscape:persp3d-origin="6 : 4 : 1"
       inkscape:vp_z="12 : 6 : 1"
       inkscape:vp_y="0 : 1000 : 0"
       inkscape:vp_x="0 : 6 : 1"
       sodipodi:type="inkscape:persp3d" />
    <inkscape:perspective
       id="perspective4904"
       inkscape:persp3d-origin="16 : 10.666667 : 1"
       inkscape:vp_z="32 : 16 : 1"
       inkscape:vp_y="0 : 1000 : 0"
       inkscape:vp_x="0 : 16 : 1"
       sodipodi:type="inkscape:persp3d" />
  </defs>
  <g
     id="g1327">
    <path
       d="M 66.275,1.768 C 24.94,1.768 1.704,23.139 1.704,66.804 L 1.704,516.927 C 1.704,557.771 22.599,579.156 63.896,579.156 L 515.92,579.156 C 557.227,579.156 578.149,558.841 578.149,516.927 L 578.149,66.804 C 578.149,24.203 557.227,1.768 514.628,1.768 C 514.624,1.768 66.133,1.625 66.275,1.768 z "
       style="fill:#111;stroke:#eee;stroke-width:3.40799999"
       id="path1329" />
  </g>
  <rect
     y="-69.882286"
     x="207.25069"
     style="fill:none"
     width="376.44794"
     height="376.44794"
     id="rect3" />
  <path
     inkscape:connector-curvature="0"
     style="fill:#ffffff;fill-opacity:1"
     d="M 530.30293,530.30294 H 49.697067 v -36.96968 c 0,-9.24243 7.393942,-18.48484 18.484845,-18.48484 H 511.81809 c 9.2424,0 18.48484,7.39393 18.48484,18.48484 v 36.96968 z"
     id="path5" />
  <path
     inkscape:connector-curvature="0"
     style="fill:#ffffff;fill-opacity:1"
     d="m 289.99998,180.93945 c -5.54545,5.54544 -11.09091,7.39392 -18.48484,11.0909 v 83.18178 c 22.18183,7.39392 36.96969,-3.69696 36.96969,-3.69696 v -79.48482 c -7.39394,-3.69698 -12.9394,-7.39394 -18.48485,-11.0909 z"
     id="path7" />
  <path
     inkscape:connector-curvature="0"
     style="fill:#ffffff;fill-opacity:1"
     d="m 289.99998,519.21205 c 5.54545,-5.54546 11.09091,-7.39396 18.48485,-11.09092 V 393.51511 c -14.78786,-16.63635 -36.96969,-9.24242 -36.96969,-9.24242 v 121.99994 c 7.39393,3.697 12.93939,7.39396 18.48484,12.93942 z"
     id="path9" />
  <path
     inkscape:connector-curvature="0"
     style="fill:#ffffff;fill-opacity:1"
     d="M 289.99998,49.697061 64.484935,118.09098 c -9.242416,3.69698 -14.787868,11.09089 -14.787868,22.18181 l 0,0 c 0,18.48484 12.939394,35.12122 31.424226,38.81817 22.181807,3.69695 42.515127,-14.78789 42.515127,-36.96968 0,20.33333 16.63635,36.96968 36.96968,36.96968 20.33333,0 36.96968,-16.63635 36.96968,-36.96968 0,20.33333 20.33333,36.96968 46.21211,36.96968 25.87877,0 46.21209,-16.63635 46.21209,-36.96968 0,20.33333 20.33334,36.96968 46.21212,36.96968 25.87877,0 46.21209,-16.63635 46.21209,-36.96968 0,20.33333 16.63636,36.96968 36.9697,36.96968 20.3333,0 36.96966,-16.63635 36.96966,-36.96968 0,22.18179 20.33334,40.66663 42.51514,36.96968 18.48484,-3.69695 31.42424,-20.33333 31.42424,-38.81817 v 0 c 0,-9.24243 -5.54545,-18.48483 -14.78789,-22.18181 L 289.99998,49.697061 z"
     id="path11" />
  <path
     inkscape:connector-curvature="0"
     style="fill:#ffffff;fill-opacity:1"
     d="m 247.48485,290.00002 c 14.78787,0 20.33332,3.69695 38.81816,3.69695 29.57576,0 42.51512,-18.48484 53.60605,-31.42423 22.18181,-33.27271 57.30301,-27.72727 60.99997,-27.72727 1.84848,0 1.84848,0 1.84848,1.8485 -1.84848,1.84848 -1.84848,11.09091 0,12.93938 20.33333,27.72726 18.48484,46.21212 18.48484,57.30302 0,11.0909 -9.24242,16.63636 -14.78786,11.0909 -7.39394,-7.39394 -11.09091,-12.9394 -20.33332,-16.63636 -12.9394,-7.39394 -18.48486,16.63636 -20.33333,36.96968 0,14.78786 24.03028,48.06058 35.12119,86.87875 5.54546,14.78789 -12.93938,22.18181 -24.0303,9.24243 -9.24242,-11.09089 -46.21209,-66.54543 -92.4242,-66.54543 -53.60603,0 -77.63633,44.36361 -90.57572,64.69694 -9.24243,14.78787 -36.96968,9.24241 -27.72726,-14.78786 3.69697,-9.24243 27.72726,-60.99999 29.57575,-73.93938 -1.84849,-16.63636 0,-53.60602 51.75755,-53.60602 z"
     id="path13" />
  <path
     inkscape:connector-curvature="0"
     style="fill:#ffffff;fill-opacity:1"
     d="m 225.30304,304.78787 c -9.24241,-5.54545 -20.33332,-14.78785 -36.96969,-14.78785 -12.93938,0 -38.81815,12.93937 -44.36361,44.3636 0,3.69697 0,9.24242 3.69697,11.09091 7.39394,5.54544 22.18181,11.0909 22.18181,3.69696 1.84848,-40.66666 40.66665,-40.66666 53.60603,-31.42422 3.69698,3.69696 11.09091,-5.54545 1.84849,-12.9394 z"
     id="path15" />
</svg>

<svg width="580" height="580" viewBox="0 0 580 580" fill="none" xmlns="http://www.w3.org/2000/svg">
<g clip-path="url(#clip0)">
<path d="M66.2751 1.76815C24.9401 1.76815 1.7041 23.1391 1.7041 66.8041V516.927C1.7041 557.771 22.5991 579.156 63.8961 579.156H515.92C557.227 579.156 578.149 558.841 578.149 516.927V66.8041C578.149 24.2031 557.227 1.76815 514.628 1.76815C514.624 1.76815 66.1331 1.62515 66.2751 1.76815Z" fill="#111111" stroke="#EEEEEE" stroke-width="3.408"/>
<path d="M530.303 530.303H49.6973V493.333C49.6973 484.091 57.0912 474.849 68.1821 474.849H511.818C521.061 474.849 530.303 482.243 530.303 493.333V530.303Z" fill="white"/>
<path d="M290 180.939C284.455 186.485 278.909 188.333 271.515 192.03V275.212C293.697 282.606 308.485 271.515 308.485 271.515V192.03C301.091 188.333 295.545 184.636 290 180.939Z" fill="white"/>
<path d="M290 519.212C295.545 513.667 301.091 511.818 308.485 508.121V393.515C293.697 376.879 271.515 384.273 271.515 384.273V506.273C278.909 509.97 284.455 513.667 290 519.212Z" fill="white"/>
<path d="M290 49.6973L64.4851 118.091C55.2427 121.788 49.6973 129.182 49.6973 140.273C49.6973 158.758 62.6367 175.394 81.1215 179.091C103.303 182.788 123.637 164.303 123.637 142.121C123.637 162.455 140.273 179.091 160.606 179.091C180.94 179.091 197.576 162.455 197.576 142.121C197.576 162.455 217.909 179.091 243.788 179.091C269.667 179.091 290 162.455 290 142.121C290 162.455 310.333 179.091 336.212 179.091C362.091 179.091 382.424 162.455 382.424 142.121C382.424 162.455 399.061 179.091 419.394 179.091C439.727 179.091 456.364 162.455 456.364 142.121C456.364 164.303 476.697 182.788 498.879 179.091C517.364 175.394 530.303 158.758 530.303 140.273C530.303 131.031 524.758 121.788 515.515 118.091L290 49.6973Z" fill="white"/>
<path d="M247.485 290C262.273 290 267.818 293.697 286.303 293.697C315.879 293.697 328.818 275.212 339.909 262.273C362.091 229 397.212 234.545 400.909 234.545C402.758 234.545 402.758 234.545 402.758 236.394C400.909 238.242 400.909 247.485 402.758 249.333C423.091 277.06 421.242 295.545 421.242 306.636C421.242 317.727 412 323.273 406.455 317.727C399.061 310.333 395.364 304.788 386.121 301.091C373.182 293.697 367.636 317.727 365.788 338.06C365.788 352.848 389.818 386.121 400.909 424.939C406.455 439.727 387.97 447.121 376.879 434.182C367.636 423.091 330.667 367.636 284.455 367.636C230.849 367.636 206.818 412 193.879 432.333C184.637 447.121 156.909 441.576 166.152 417.545C169.849 408.303 193.879 356.545 195.727 343.606C193.879 326.97 195.727 290 247.485 290V290Z" fill="white"/>
<path d="M225.303 304.788C216.061 299.242 204.97 290 188.333 290C175.394 290 149.515 302.939 143.97 334.364C143.97 338.061 143.97 343.606 147.667 345.454C155.061 351 169.849 356.545 169.849 349.151C171.697 308.485 210.515 308.485 223.455 317.727C227.152 321.424 234.545 312.182 225.303 304.788V304.788Z" fill="white"/>
</g>
<defs>
<clipPath id="clip0">
<path d="M0 0H580V580H0V0Z" fill="white"/>
</clipPath>
</defs>
</svg>
